**kern	**silbe	**harmony	**phrase	**leadinstrument	**rhyme	**timestamp	**harte
*ICvox	*	*M4/4	*	*	*	*	*M4/4
*VRlead	*	*	*	*	*	*	*
*Hstimme	*	*	*	*	*	*	*
*E:	*	*E:	*	*	*	*	*E:
*M4/4	*	*	*	*	*	*	*
*clefF4	*	*	*	*	*	*	*
r;	.	1r;	.	r	.	0	N.C.
=1	=1	=1	=1	=1	=1	=1	=1
*>Letter>A	*>Letter>A	*>Letter>A	*>Letter>A	*>Letter>A	*>Letter>A	*>Letter>A	*>Letter>A
*>Label>Intro	*>Label>Intro	*>Label>Intro	*>Label>Intro	*>Label>Intro	*>Label>Intro	*>Label>Intro	*>Label>Intro
1r	.	1EM	newline	guitar	.	0.372	E:maj
=2	=2	=2	=2	=2	=2	=2	=2
1r	.	1EM	.	guitar	.	2.438	E:maj
=3	=3	=3	=3	=3	=3	=3	=3
1r	.	1EM	.	guitar	.	4.505	E:maj
=4	=4	=4	=4	=4	=4	=4	=4
2r	.	1EM	.	guitar	.	6.572	E:maj
8r	.	.	.	.	.	.	.
8G#	There's	.	.	.	.	.	.
8A	a	.	.	.	.	.	.
[8B	storm	.	.	.	.	.	.
=5	=5	=5	=5	=5	=5	=5	=5
*>Letter>B	*>Letter>B	*>Letter>B	*>Letter>B	*>Letter>B	*>Letter>B	*>Letter>B	*>Letter>B
*>Label>Verse	*>Label>Verse	*>Label>Verse	*>Label>Verse	*>Label>Verse	*>Label>Verse	*>Label>Verse	*>Label>Verse
4.B]	_	1EM	newline	voice	.	8.639	E:maj
8B	a-	.	.	.	.	.	.
4.B	-cross	.	.	.	.	.	.
8F#	the	.	.	.	.	.	.
=6	=6	=6	=6	=6	=6	=6	=6
8G#	val-	1EM	.	voice	.	10.642	E:maj
[4.G#	-ley,	.	.	.	a	.	.
4.G#]	_	.	.	.	.	.	.
[8A	clouds	.	.	.	.	.	.
=7	=7	=7	=7	=7	=7	=7	=7
4.A]	_	1AM	.	voice	.	12.646	A:maj
8B	are	.	.	.	.	.	.
8A	rol-	.	.	.	.	.	.
4E	-ling	.	.	.	.	.	.
[8C#	in	.	.	.	.	.	.
=8	=8	=8	=8	=8	=8	=8	=8
4C#]	_	1AM	.	voice	.	14.649	A:maj
4r	.	.	.	.	.	.	.
4.r	.	.	.	.	.	.	.
8C#	the	.	.	.	.	.	.
=9	=9	=9	=9	=9	=9	=9	=9
8B	af-	1BM	newline	voice	.	16.653	B:maj
8B	-ter-	.	.	.	.	.	.
[4B	-noon	.	.	.	.	.	.
4.B]	_	.	.	.	.	.	.
8B-	is	.	.	.	.	.	.
=10	=10	=10	=10	=10	=10	=10	=10
8A	hea-	1BMm	.	voice	.	18.716	B:7
[4.BB	-vy	.	.	.	a	.	.
4BB]	_	.	.	.	.	.	.
8E	on	.	.	.	.	.	.
8F#	your	.	.	.	.	.	.
=11	=11	=11	=11	=11	=11	=11	=11
8F#	shoul-	1EM	.	voice	(B	20.778	E:maj
[4.G#	-ders	.	.	.	b)	.	.
2G#]	_	.	.	.	.	.	.
=12	=12	=12	=12	=12	=12	=12	=12
2r	.	1EM	.	voice	.	22.841	E:maj
4r	.	.	.	.	.	.	.
8r	.	.	.	.	.	.	.
16G#	There's	.	.	.	.	.	.
16A	a	.	.	.	.	.	.
=13	=13	=13	=13	=13	=13	=13	=13
*>Letter>B	*>Letter>B	*>Letter>B	*>Letter>B	*>Letter>B	*>Letter>B	*>Letter>B	*>Letter>B
*>Label>Verse	*>Label>Verse	*>Label>Verse	*>Label>Verse	*>Label>Verse	*>Label>Verse	*>Label>Verse	*>Label>Verse
8B	truck	1EM	newline	voice	.	24.903	E:maj
4B	out	.	.	.	.	.	.
[8c#	on	.	.	.	.	.	.
4.c#]	_	.	.	.	.	.	.
8A	the	.	.	.	.	.	.
=14	=14	=14	=14	=14	=14	=14	=14
8G#	four	1EMm	.	voice	.	26.956	E:7
[4.F#	lane,	.	.	.	.	.	.
4.F#]	_	.	.	.	.	.	.
8G#	a	.	.	.	.	.	.
=15	=15	=15	=15	=15	=15	=15	=15
4.A	mile	1AM	.	voice	.	29.009	A:maj
8B	or	.	.	.	.	.	.
4A	more	.	.	.	.	.	.
8E	a-	.	.	.	.	.	.
[8C#	-way,	.	.	.	.	.	.
=16	=16	=16	=16	=16	=16	=16	=16
2C#]	_	1AM	.	voice	.	31.061	A:maj
4.r	.	.	.	.	.	.	.
8C#	the	.	.	.	.	.	.
=17	=17	=17	=17	=17	=17	=17	=17
8B	whin-	1BM	newline	voice	.	33.114	B:maj
4B	-ing	.	.	.	.	.	.
4.B	of	.	.	.	.	.	.
8B-	his	.	.	.	.	.	.
[8A	wheels	.	.	.	.	.	.
=18	=18	=18	=18	=18	=18	=18	=18
2A]	_	1BMm	.	voice	.	35.174	B:7
6A	hust	.	.	.	.	.	.
6G#	makes	.	.	.	.	.	.
6F#	it	.	.	.	.	.	.
=19	=19	=19	=19	=19	=19	=19	=19
8F#	col-	1EM	.	voice	(B	37.233	E:maj
[8E	-der	.	.	.	b)	.	.
2.E]	_	.	.	.	.	.	.
=20	=20	=20	=20	=20	=20	=20	=20
2.r	.	1EM	.	voice	.	39.293	E:maj
8r	.	.	.	.	.	.	.
16G#	He's	.	.	.	.	.	.
16A	an	.	.	.	.	.	.
=21	=21	=21	=21	=21	=21	=21	=21
*>Letter>B	*>Letter>B	*>Letter>B	*>Letter>B	*>Letter>B	*>Letter>B	*>Letter>B	*>Letter>B
*>Label>Verse	*>Label>Verse	*>Label>Verse	*>Label>Verse	*>Label>Verse	*>Label>Verse	*>Label>Verse	*>Label>Verse
4.B	ho-	1EM	newline	voice	.	41.353	E:maj
8B	-ur	.	.	.	.	.	.
4.c#	'way	.	.	.	.	.	.
8F#	from	.	.	.	.	.	.
=22	=22	=22	=22	=22	=22	=22	=22
8G#	ri-	1EMm	.	voice	.	43.418	E:7
[8G#	-ding	.	.	.	.	.	.
2G#]	_	.	.	.	.	.	.
8F#	on	.	.	.	.	.	.
8G#	your	.	.	.	.	.	.
=23	=23	=23	=23	=23	=23	=23	=23
4.A	prayers	1AM	.	voice	.	45.483	A:maj
[8B	up	.	.	.	.	.	.
8B]	_	.	.	.	.	.	.
8A	in	.	.	.	.	.	.
8E	the	.	.	.	.	.	.
[8C#	sky	.	.	.	.	.	.
=24	=24	=24	=24	=24	=24	=24	=24
2C#]	_	1AM	.	voice	.	47.547	A:maj
2r	.	.	.	.	.	.	.
=25	=25	=25	=25	=25	=25	=25	=25
8B	ten	1BM	newline	voice	.	49.612	B:maj
4B	days	.	.	.	.	.	.
[8B	on	.	.	.	.	.	.
4B]	_	.	.	.	.	.	.
8B-	the	.	.	.	.	.	.
[8A	road	.	.	.	.	.	.
=26	=26	=26	=26	=26	=26	=26	=26
2A_	_	1BMm	.	voice	.	51.66	B:7
8A]	_	.	.	.	.	.	.
8r	.	.	.	.	.	.	.
8G#	bare-	.	.	.	.	.	.
8F#	-ly	.	.	.	.	.	.
=27	=27	=27	=27	=27	=27	=27	=27
1G#	gone	1EM	.	voice	C	53.707	E:maj
=28	=28	=28	=28	=28	=28	=28	=28
2r	.	1EM	.	voice	.	55.754	E:maj
4r	.	.	.	.	.	.	.
16G#	There's	.	.	.	.	.	.
16A	a	.	.	.	.	.	.
[8B	fire	.	.	.	.	.	.
=29	=29	=29	=29	=29	=29	=29	=29
*>Letter>B	*>Letter>B	*>Letter>B	*>Letter>B	*>Letter>B	*>Letter>B	*>Letter>B	*>Letter>B
*>Label>Verse	*>Label>Verse	*>Label>Verse	*>Label>Verse	*>Label>Verse	*>Label>Verse	*>Label>Verse	*>Label>Verse
2B_	_	1EM	newline	voice	.	57.802	E:maj
8B]	_	.	.	.	.	.	.
4c#	soft-	.	.	.	.	.	.
8B	-ly	.	.	.	.	.	.
=30	=30	=30	=30	=30	=30	=30	=30
8G#	bur-	1EMm	.	voice	.	59.852	E:7
[8G#	-ning,	.	.	.	.	.	.
4G#_	_	.	.	.	.	.	.
4G#]	_	.	.	.	.	.	.
4r	.	.	.	.	.	.	.
=31	=31	=31	=31	=31	=31	=31	=31
8G#	sup-	1AM	.	voice	.	61.902	A:maj
4B	-per's	.	.	.	.	.	.
[8A	on	.	.	.	.	.	.
4A]	_	.	.	.	.	.	.
8E	the	.	.	.	.	.	.
[8C#	stove	.	.	.	.	.	.
=32	=32	=32	=32	=32	=32	=32	=32
2C#]	_	1AM	.	voice	.	63.952	A:maj
4r	.	.	.	.	.	.	.
16B	it's	.	.	.	.	.	.
16B	the	.	.	.	.	.	.
[8B	light	.	.	.	.	.	.
=33	=33	=33	=33	=33	=33	=33	=33
2B]	_	1BM	newline	voice	.	66.002	B:maj
8B	in	.	.	.	.	.	.
4B-	your	.	.	.	.	.	.
[8A	eyes	.	.	.	.	.	.
=34	=34	=34	=34	=34	=34	=34	=34
2A_	_	1BMm	.	voice	.	68.035	B:7
8A]	_	.	.	.	.	.	.
8F#	that	.	.	.	.	.	.
8G#	makes	.	.	.	.	.	.
8D#	him	.	.	.	.	.	.
=35	=35	=35	=35	=35	=35	=35	=35
1E	warm	1EM	.	voice	C	70.068	E:maj
=36	=36	=36	=36	=36	=36	=36	=36
1r	.	1EM	.	voice	.	72.102	E:maj
=37	=37	=37	=37	=37	=37	=37	=37
*>Letter>C	*>Letter>C	*>Letter>C	*>Letter>C	*>Letter>C	*>Letter>C	*>Letter>C	*>Letter>C
*>Label>Chorus	*>Label>Chorus	*>Label>Chorus	*>Label>Chorus	*>Label>Chorus	*>Label>Chorus	*>Label>Chorus	*>Label>Chorus
4.c#	Hey,	1AM	newline	voice	.	74.135	A:maj
8c#	it's	.	.	.	.	.	.
4.c#	good	.	.	.	.	.	.
8c#	to	.	.	.	.	.	.
=38	=38	=38	=38	=38	=38	=38	=38
8B	be	1BM	.	voice	.	76.192	B:maj
4B	back	.	.	.	.	.	.
[8B	home	.	.	.	.	.	.
4.B]	_	.	.	.	.	.	.
8G#	a-	.	.	.	.	.	.
=39	=39	=39	=39	=39	=39	=39	=39
2.G#	-gain	1EM	.	voice	D	78.249	E:maj
4r	.	.	.	.	.	.	.
=40	=40	=40	=40	=40	=40	=40	=40
1r	.	1EM	.	voice	.	80.307	E:maj
=41	=41	=41	=41	=41	=41	=41	=41
4r	.	1AM	newline	voice	.	82.364	A:maj
8c#	Some-	.	.	.	.	.	.
[8c#	-times	.	.	.	.	.	.
2c#]	_	.	.	.	.	.	.
=42	=42	=42	=42	=42	=42	=42	=42
8B	this	1BM	.	voice	.	84.426	B:maj
4B	old	.	.	.	.	.	.
[8B	farm	.	.	.	.	.	.
4.B]	_	.	.	.	.	.	.
8A	feels	.	.	.	.	.	.
=43	=43	=43	=43	=43	=43	=43	=43
8G#	_	1EM	.	voice	.	86.488	E:maj
4G#	like	.	.	.	.	.	.
8B	a	.	.	.	.	.	.
4G#	long	.	.	.	.	.	.
4F#	lost	.	.	.	.	.	.
=44	=44	=44	=44	=44	=44	=44	=44
4E	friend	1AM	.	voice	D	88.55	A:maj
4r	.	.	.	.	.	.	.
4.c#	Yes,	.	.	.	.	.	.
8B	and	.	.	.	.	.	.
=45	=45	=45	=45	=45	=45	=45	=45
4B	hey,	1BM	newline	voice	.	90.612	B:maj
8B	it's	.	.	.	.	.	.
[8c#	good	.	.	.	.	.	.
4c#]	_	.	.	.	.	.	.
8r	.	.	.	.	.	.	.
8G#	to	.	.	.	.	.	.
=46	=46	=46	=46	=46	=46	=46	=46
8A	be	1BMm	.	voice	.	92.647	B:7
4.A	back	.	.	.	.	.	.
4G#	home	.	.	.	.	.	.
8D#	a-	.	.	.	.	.	.
[8E	-gain	.	.	.	D	.	.
=47	=47	=47	=47	=47	=47	=47	=47
2E]	_	1EM	.	voice	.	94.683	E:maj
2r	.	.	.	.	.	.	.
=48	=48	=48	=48	=48	=48	=48	=48
2r	.	1EM	.	voice	.	96.718	E:maj
4.r	.	.	.	.	.	.	.
[8B	There's	.	.	.	.	.	.
=49	=49	=49	=49	=49	=49	=49	=49
*>Letter>B	*>Letter>B	*>Letter>B	*>Letter>B	*>Letter>B	*>Letter>B	*>Letter>B	*>Letter>B
*>Label>Verse	*>Label>Verse	*>Label>Verse	*>Label>Verse	*>Label>Verse	*>Label>Verse	*>Label>Verse	*>Label>Verse
8B]	_	1EM	newline	voice	.	98.754	E:maj
4B	all	.	.	.	.	.	.
8B	the	.	.	.	.	.	.
4.c#	news	.	.	.	.	.	.
8F#	to	.	.	.	.	.	.
=50	=50	=50	=50	=50	=50	=50	=50
8G#	tell	1EMm	.	voice	.	100.784	E:7
4.G#	him,	.	.	.	.	.	.
2r	.	.	.	.	.	.	.
=51	=51	=51	=51	=51	=51	=51	=51
4.A	how'd	1AM	.	voice	.	102.813	A:maj
[8B	you	.	.	.	.	.	.
8B]	_	.	.	.	.	.	.
8A	spend	.	.	.	.	.	.
8E	your	.	.	.	.	.	.
[8C#	time	.	.	.	.	.	.
=52	=52	=52	=52	=52	=52	=52	=52
2C#]	_	1AM	.	voice	.	104.843	A:maj
2r	.	.	.	.	.	.	.
=53	=53	=53	=53	=53	=53	=53	=53
4r	.	1BM	newline	voice	.	106.873	B:maj
8B	what's	.	.	.	.	.	.
8B	the	.	.	.	.	.	.
8B	lat-	.	.	.	.	.	.
4B-	-est	.	.	.	.	.	.
[8A	thing	.	.	.	.	.	.
=54	=54	=54	=54	=54	=54	=54	=54
2A_	_	1BMm	.	voice	.	108.903	B:7
8A]	_	.	.	.	.	.	.
8F#	the	.	.	.	.	.	.
8G#	neigh-	.	.	.	.	.	.
8F#	-bors	.	.	.	.	.	.
=55	=55	=55	=55	=55	=55	=55	=55
1G#	say?	1EM	.	voice	E	110.934	E:maj
=56	=56	=56	=56	=56	=56	=56	=56
2r	.	1EM	.	voice	.	112.965	E:maj
4r	.	.	.	.	.	.	.
8r	.	.	.	.	.	.	.
16G#	And	.	.	.	.	.	.
16A	your	.	.	.	.	.	.
=57	=57	=57	=57	=57	=57	=57	=57
*>Letter>B	*>Letter>B	*>Letter>B	*>Letter>B	*>Letter>B	*>Letter>B	*>Letter>B	*>Letter>B
*>Label>Verse	*>Label>Verse	*>Label>Verse	*>Label>Verse	*>Label>Verse	*>Label>Verse	*>Label>Verse	*>Label>Verse
8B	mo-	1EM	newline	voice	.	114.995	E:maj
4.B	-ther	.	.	.	.	.	.
4.c#	called	.	.	.	.	.	.
[8B	last	.	.	.	.	.	.
=58	=58	=58	=58	=58	=58	=58	=58
8B]	_	1EMm	.	voice	.	117.048	E:7
8G#	Fri-	.	.	.	.	.	.
2G#	-day,	.	.	.	.	.	.
4r	.	.	.	.	.	.	.
=59	=59	=59	=59	=59	=59	=59	=59
8A	Sun-	1AM	.	voice	.	119.101	A:maj
[4.B	-shine	.	.	.	.	.	.
8B]	_	.	.	.	.	.	.
8A	made	.	.	.	.	.	.
8E	her	.	.	.	.	.	.
[8C#	cry	.	.	.	.	.	.
=60	=60	=60	=60	=60	=60	=60	=60
2C#]	_	1AM	.	voice	.	121.153	A:maj
4.r	.	.	.	.	.	.	.
8C#	you	.	.	.	.	.	.
=61	=61	=61	=61	=61	=61	=61	=61
4.B	felt	1BM	newline	voice	.	123.206	B:maj
8B	the	.	.	.	.	.	.
4B	ba-	.	.	.	.	.	.
8B-	-by	.	.	.	.	.	.
[8A	move	.	.	.	.	.	.
=62	=62	=62	=62	=62	=62	=62	=62
4.A]	_	1BMm	.	voice	.	125.24	B:7
[8G#	just	.	.	.	.	.	.
8G#]	_	.	.	.	.	.	.
8G#	yes-	.	.	.	.	.	.
8D#	-ter-	.	.	.	.	.	.
[8E	-day	.	.	.	E	.	.
=63	=63	=63	=63	=63	=63	=63	=63
1E]	_	1EM	.	voice	.	127.274	E:maj
=64	=64	=64	=64	=64	=64	=64	=64
1r	.	1EM	.	voice	.	129.308	E:maj
=65	=65	=65	=65	=65	=65	=65	=65
*>Letter>C	*>Letter>C	*>Letter>C	*>Letter>C	*>Letter>C	*>Letter>C	*>Letter>C	*>Letter>C
*>Label>Chorus	*>Label>Chorus	*>Label>Chorus	*>Label>Chorus	*>Label>Chorus	*>Label>Chorus	*>Label>Chorus	*>Label>Chorus
4.c#	Hey,	1AM	newline	voice	.	131.343	A:maj
8c#	it's	.	.	.	.	.	.
4.c#	good	.	.	.	.	.	.
8c#	to	.	.	.	.	.	.
=66	=66	=66	=66	=66	=66	=66	=66
8B	be	1BM	.	voice	.	133.379	B:maj
4B	back	.	.	.	.	.	.
[8B	home	.	.	.	.	.	.
4.B]	_	.	.	.	.	.	.
8G#	a-	.	.	.	.	.	.
=67	=67	=67	=67	=67	=67	=67	=67
2.G#	-gain	1EM	.	voice	D	135.416	E:maj
16G#	yes	.	.	.	.	.	.
16D#	it	.	.	.	.	.	.
[8E	is	.	.	.	.	.	.
=68	=68	=68	=68	=68	=68	=68	=68
4E]	_	1EM	.	voice	.	137.452	E:maj
4r	.	.	.	.	.	.	.
2r	.	.	.	.	.	.	.
=69	=69	=69	=69	=69	=69	=69	=69
4r	.	1AM	newline	voice	.	139.489	A:maj
8c#	Some-	.	.	.	.	.	.
[8c#	-times	.	.	.	.	.	.
2c#]	_	.	.	.	.	.	.
=70	=70	=70	=70	=70	=70	=70	=70
8B	this	1BM	.	voice	.	141.536	B:maj
4B	old	.	.	.	.	.	.
[8B	farm	.	.	.	.	.	.
4.B]	_	.	.	.	.	.	.
8A	feels	.	.	.	.	.	.
=71	=71	=71	=71	=71	=71	=71	=71
8G#	_	1EM	.	voice	.	143.583	E:maj
4G#	like	.	.	.	.	.	.
8B	a	.	.	.	.	.	.
4G#	long	.	.	.	.	.	.
4F#	lost	.	.	.	.	.	.
=72	=72	=72	=72	=72	=72	=72	=72
4E	friend	1AM	.	voice	D	145.629	A:maj
4r	.	.	.	.	.	.	.
4.c#	Yes,	.	.	.	.	.	.
8B	and	.	.	.	.	.	.
=73	=73	=73	=73	=73	=73	=73	=73
4B	hey,	1BM	newline	voice	.	147.676	B:maj
8B	it's	.	.	.	.	.	.
[8c#	good	.	.	.	.	.	.
4c#]	_	.	.	.	.	.	.
8r	.	.	.	.	.	.	.
8G#	to	.	.	.	.	.	.
=74	=74	=74	=74	=74	=74	=74	=74
8A	be	1BMm	.	voice	.	149.696	B:7
4.A	back	.	.	.	.	.	.
4G#	home	.	.	.	.	.	.
8D#	a-	.	.	.	.	.	.
[8E	-gain	.	.	.	D	.	.
=75	=75	=75	=75	=75	=75	=75	=75
2E]	_	1EM	.	voice	.	151.716	E:maj
2r	.	.	.	.	.	.	.
=76	=76	=76	=76	=76	=76	=76	=76
1r	.	1EMm	.	voice	.	153.736	E:7
=77	=77	=77	=77	=77	=77	=77	=77
*>Letter>D	*>Letter>D	*>Letter>D	*>Letter>D	*>Letter>D	*>Letter>D	*>Letter>D	*>Letter>D
*>Label>Bridge	*>Label>Bridge	*>Label>Bridge	*>Label>Bridge	*>Label>Bridge	*>Label>Bridge	*>Label>Bridge	*>Label>Bridge
4.e	Oh,	1AM	newline	voice	.	155.756	A:maj
8e	the	.	.	.	.	.	.
4.e	time	.	.	.	.	.	.
8c#	that	.	.	.	.	.	.
=78	=78	=78	=78	=78	=78	=78	=78
8d#	I	1BM	.	voice	.	157.791	B:maj
4d#	can	.	.	.	.	.	.
4.d#	lay	.	.	.	.	.	.
8c#	this	.	.	.	.	.	.
[8B	tired	.	.	.	.	.	.
=79	=79	=79	=79	=79	=79	=79	=79
4.B]	_	1EM	.	voice	.	159.825	E:maj
[8c#	old	.	.	.	.	.	.
8c#]	_	.	.	.	.	.	.
8B	bo-	.	.	.	.	.	.
8G#	-dy	.	.	.	.	.	.
[8E	down	.	.	.	.	.	.
=80	=80	=80	=80	=80	=80	=80	=80
2E]	_	1AM	.	voice	.	161.86	A:maj
2r	.	.	.	.	.	.	.
=81	=81	=81	=81	=81	=81	=81	=81
4F#	Feel	1F#m	newline	voice	.	163.894	F#:min
8A	your	.	.	.	.	.	.
[8c#	fin-	.	.	.	.	.	.
8c#]	_	.	.	.	.	.	.
[4.e	-gers	.	.	.	.	.	.
=82	=82	=82	=82	=82	=82	=82	=82
8e]	_	1BM	.	voice	.	165.925	B:maj
8d#	feat-	.	.	.	.	.	.
8e	-her	.	.	.	.	.	.
[8d#	soft	.	.	.	.	.	.
4d#]	_	.	.	.	.	.	.
8r	.	.	.	.	.	.	.
8E	u-	.	.	.	.	.	.
=83	=83	=83	=83	=83	=83	=83	=83
4G#	-pon	1EM	.	voice	.	167.955	E:maj
[2.B	me	.	.	.	.	.	.
=84	=84	=84	=84	=84	=84	=84	=84
4B]	_	1EMm	.	voice	.	169.985	E:7
4r	.	.	.	.	.	.	.
4.r	.	.	.	.	.	.	.
8E	The	.	.	.	.	.	.
=85	=85	=85	=85	=85	=85	=85	=85
8e	kis-	1AM	newline	voice	.	172.016	A:maj
[4.e	-ses	.	.	.	.	.	.
8e]	_	.	.	.	.	.	.
8e	that	.	.	.	.	.	.
4f#	I	.	.	.	.	.	.
=86	=86	=86	=86	=86	=86	=86	=86
8e	live	1BM	.	voice	.	174.041	B:maj
[8d#	for,	.	.	.	.	.	.
2d#_	_	.	.	.	.	.	.
8d#]	_	.	.	.	.	.	.
8c#	the	.	.	.	.	.	.
=87	=87	=87	=87	=87	=87	=87	=87
4.B	love	1EM	.	voice	.	176.066	E:maj
8c#	that	.	.	.	.	.	.
4B	lights	.	.	.	.	.	.
8G#	my	.	.	.	.	.	.
[8E	way	.	.	.	.	.	.
=88	=88	=88	=88	=88	=88	=88	=88
2.E]	_	1AM	.	voice	.	178.092	A:maj
8r	.	.	.	.	.	.	.
8E	the	.	.	.	.	.	.
=89	=89	=89	=89	=89	=89	=89	=89
16A	hap-	1F#m	newline	voice	.	180.117	F#:min
16A	-pi-	.	.	.	.	.	.
[8A	-ness	.	.	.	.	.	.
2A_	_	.	.	.	.	.	.
8A]	_	.	.	.	.	.	.
8c#	that	.	.	.	.	.	.
=90	=90	=90	=90	=90	=90	=90	=90
8e	li-	1AM	.	voice	.	182.166	A:maj
4.e	-ving	.	.	.	.	.	.
8e	with	.	.	.	.	.	.
4.e	you	.	.	.	.	.	.
=91	=91	=91	=91	=91	=91	=91	=91
4c#	brings	1BM	.	voice	.	184.215	B:maj
[2.B	me	.	.	.	.	.	.
=92	=92	=92	=92	=92	=92	=92	=92
2.B]	_	1BM	.	voice	.	186.264	B:maj
8B	It's	.	.	.	.	.	.
8B	the	.	.	.	.	.	.
=93	=93	=93	=93	=93	=93	=93	=93
*>Letter>B	*>Letter>B	*>Letter>B	*>Letter>B	*>Letter>B	*>Letter>B	*>Letter>B	*>Letter>B
*>Label>Verse	*>Label>Verse	*>Label>Verse	*>Label>Verse	*>Label>Verse	*>Label>Verse	*>Label>Verse	*>Label>Verse
8B	sweet-	1EM	newline	voice	.	188.312	E:maj
4B	-est	.	.	.	.	.	.
4.c#	thing	.	.	.	.	.	.
8B	I	.	.	.	.	.	.
8G#	know	.	.	.	.	.	.
=94	=94	=94	=94	=94	=94	=94	=94
2.G#	of,	1EMm	.	voice	.	190.351	E:7
8r	.	.	.	.	.	.	.
[8A	just	.	.	.	.	.	.
=95	=95	=95	=95	=95	=95	=95	=95
8A]	_	1AM	.	voice	.	192.389	A:maj
8A	spen-	.	.	.	.	.	.
8B	-ding	.	.	.	.	.	.
[8A	time	.	.	.	.	.	.
4A]	_	.	.	.	.	.	.
8E	with	.	.	.	.	.	.
[8C#	you	.	.	.	.	.	.
=96	=96	=96	=96	=96	=96	=96	=96
2C#]	_	1AM	.	voice	.	194.427	A:maj
4r	.	.	.	.	.	.	.
8r	.	.	.	.	.	.	.
16G#	It's	.	.	.	.	.	.
16A	the	.	.	.	.	.	.
=97	=97	=97	=97	=97	=97	=97	=97
16B	lit-	1BM	newline	voice	.	196.466	B:maj
16B	-tle	.	.	.	.	.	.
[4.B	things	.	.	.	.	.	.
2B]	_	.	.	.	.	.	.
=98	=98	=98	=98	=98	=98	=98	=98
8r	.	1BMm	.	voice	.	198.491	B:7
8F#	that	.	.	.	.	.	.
8G#	make	.	.	.	.	.	.
8E	a	.	.	.	.	.	.
4F#	house	.	.	.	.	.	.
8.r	.	.	.	.	.	.	.
16E	a	.	.	.	.	.	.
=99	=99	=99	=99	=99	=99	=99	=99
1G#	home	1EM	.	voice	C	200.516	E:maj
=100	=100	=100	=100	=100	=100	=100	=100
2.r	.	1EM	.	voice	.	202.541	E:maj
8B	Like	.	.	.	.	.	.
8B	a	.	.	.	.	.	.
=101	=101	=101	=101	=101	=101	=101	=101
*>Letter>B	*>Letter>B	*>Letter>B	*>Letter>B	*>Letter>B	*>Letter>B	*>Letter>B	*>Letter>B
*>Label>Verse	*>Label>Verse	*>Label>Verse	*>Label>Verse	*>Label>Verse	*>Label>Verse	*>Label>Verse	*>Label>Verse
[2B	fire	1EM	newline	voice	.	204.566	E:maj
8B]	_	.	.	.	.	.	.
4c#	soft-	.	.	.	.	.	.
[8e	-ly	.	.	.	.	.	.
=102	=102	=102	=102	=102	=102	=102	=102
8e]	_	1EM	.	voice	.	206.582	E:maj
4B	bur-	.	.	.	.	.	.
[8G#	-ning	.	.	.	.	.	.
2G#]	_	.	.	.	.	.	.
=103	=103	=103	=103	=103	=103	=103	=103
8A	sup-	1AM	.	voice	.	208.597	A:maj
4B	-per	.	.	.	.	.	.
4.A	on	.	.	.	.	.	.
8E	the	.	.	.	.	.	.
[8C#	stove	.	.	.	.	.	.
=104	=104	=104	=104	=104	=104	=104	=104
2.C#]	_	1AM	.	voice	.	210.613	A:maj
8r	.	.	.	.	.	.	.
8C#	the	.	.	.	.	.	.
=105	=105	=105	=105	=105	=105	=105	=105
2B	light	1BM	newline	voice	.	212.628	B:maj
8B	in	.	.	.	.	.	.
4B-	your	.	.	.	.	.	.
[8A	eyes	.	.	.	.	.	.
=106	=106	=106	=106	=106	=106	=106	=106
2A_	_	1BMm	.	voice	.	214.678	B:7
8A]	_	.	.	.	.	.	.
8F#	that	.	.	.	.	.	.
8G#	makes	.	.	.	.	.	.
8D#	me	.	.	.	.	.	.
=107	=107	=107	=107	=107	=107	=107	=107
1E	warm	1EM	.	voice	C	216.728	E:maj
=108	=108	=108	=108	=108	=108	=108	=108
1r	.	1EMm	.	voice	.	218.777	E:7
=109	=109	=109	=109	=109	=109	=109	=109
*>Letter>C	*>Letter>C	*>Letter>C	*>Letter>C	*>Letter>C	*>Letter>C	*>Letter>C	*>Letter>C
*>Label>Chorus	*>Label>Chorus	*>Label>Chorus	*>Label>Chorus	*>Label>Chorus	*>Label>Chorus	*>Label>Chorus	*>Label>Chorus
4.c#	Hey,	1AM	newline	voice	.	220.827	A:maj
8c#	it's	.	.	.	.	.	.
4.c#	good	.	.	.	.	.	.
8c#	to	.	.	.	.	.	.
=110	=110	=110	=110	=110	=110	=110	=110
8B	be	1BM	.	voice	.	222.858	B:maj
4B	back	.	.	.	.	.	.
[8B	home	.	.	.	.	.	.
4.B]	_	.	.	.	.	.	.
8G#	a-	.	.	.	.	.	.
=111	=111	=111	=111	=111	=111	=111	=111
2.G#	-gain	1EM	.	voice	D	224.889	E:maj
4r	.	.	.	.	.	.	.
=112	=112	=112	=112	=112	=112	=112	=112
1r	.	1EM	.	voice	.	226.92	E:maj
=113	=113	=113	=113	=113	=113	=113	=113
4r	.	1AM	newline	voice	.	228.951	A:maj
8c#	Some-	.	.	.	.	.	.
[8c#	-times	.	.	.	.	.	.
2c#]	_	.	.	.	.	.	.
=114	=114	=114	=114	=114	=114	=114	=114
8B	this	1BM	.	voice	.	230.973	B:maj
4B	old	.	.	.	.	.	.
[8B	farm	.	.	.	.	.	.
4.B]	_	.	.	.	.	.	.
8A	feels	.	.	.	.	.	.
=115	=115	=115	=115	=115	=115	=115	=115
8G#	_	1EM	.	voice	.	232.995	E:maj
4G#	like	.	.	.	.	.	.
8B	a	.	.	.	.	.	.
4G#	long	.	.	.	.	.	.
4F#	lost	.	.	.	.	.	.
=116	=116	=116	=116	=116	=116	=116	=116
4E	friend	1AM	.	voice	D	235.017	A:maj
4r	.	.	.	.	.	.	.
4.c#	Yes,	.	.	.	.	.	.
8B	and	.	.	.	.	.	.
=117	=117	=117	=117	=117	=117	=117	=117
4B	hey,	1BM	newline	voice	.	237.039	B:maj
8B	it's	.	.	.	.	.	.
[8c#	good	.	.	.	.	.	.
4c#]	_	.	.	.	.	.	.
8r	.	.	.	.	.	.	.
8G#	to	.	.	.	.	.	.
=118	=118	=118	=118	=118	=118	=118	=118
8A	be	1BMm	.	voice	.	239.067	B:7
4.A	back	.	.	.	.	.	.
4G#	home	.	.	.	.	.	.
8D#	a-	.	.	.	.	.	.
[8E	-gain	.	.	.	D	.	.
=119	=119	=119	=119	=119	=119	=119	=119
2E]	_	1EM	.	voice	.	241.096	E:maj
2r	.	.	.	.	.	.	.
=120	=120	=120	=120	=120	=120	=120	=120
1r	.	1EM	.	voice	.	243.124	E:maj
=121	=121	=121	=121	=121	=121	=121	=121
*>Letter>C	*>Letter>C	*>Letter>C	*>Letter>C	*>Letter>C	*>Letter>C	*>Letter>C	*>Letter>C
*>Label>Chorus	*>Label>Chorus	*>Label>Chorus	*>Label>Chorus	*>Label>Chorus	*>Label>Chorus	*>Label>Chorus	*>Label>Chorus
4.c#	Hey,	1AM	newline	voice	.	245.153	A:maj
8c#	it's	.	.	.	.	.	.
4.c#	good	.	.	.	.	.	.
8c#	to	.	.	.	.	.	.
=122	=122	=122	=122	=122	=122	=122	=122
8B	be	1BMm	.	voice	.	247.157	B:7
4B	back	.	.	.	.	.	.
[8c#	home	.	.	.	.	.	.
8c#]	_	.	.	.	.	.	.
4B	_	.	.	.	.	.	.
8G#	a-	.	.	.	.	.	.
=123	=123	=123	=123	=123	=123	=123	=123
[2G#	-gain	1EM	.	voice	D	249.162	E:maj
8G#]	_	.	.	.	.	.	.
8B	you	.	.	.	.	.	.
8G#	know	.	.	.	.	.	.
8D#	it	.	.	.	.	.	.
=124	=124	=124	=124	=124	=124	=124	=124
4E	is	1EMm	.	voice	.	251.166	E:7
4r	.	.	.	.	.	.	.
2r	.	.	.	.	.	.	.
=125	=125	=125	=125	=125	=125	=125	=125
4r	.	1AM	newline	voice	.	253.171	A:maj
8c#	Some-	.	.	.	.	.	.
[8c#	-times	.	.	.	.	.	.
2c#]	_	.	.	.	.	.	.
=126	=126	=126	=126	=126	=126	=126	=126
8B	this	1BMm	.	voice	.	255.202	B:7
4B	old	.	.	.	.	.	.
[8B	farm	.	.	.	.	.	.
4.B]	_	.	.	.	.	.	.
8A	feels	.	.	.	.	.	.
=127	=127	=127	=127	=127	=127	=127	=127
8G#	_	1EM	.	voice	.	257.233	E:maj
4G#	like	.	.	.	.	.	.
8G#	a	.	.	.	.	.	.
4A	long	.	.	.	.	.	.
4B	lost	.	.	.	.	.	.
=128	=128	=128	=128	=128	=128	=128	=128
2c#	friend	1AM	.	voice	D	259.264	A:maj
2r	.	.	.	.	.	.	.
=129	=129	=129	=129	=129	=129	=129	=129
4.B	hey,	1BM	newline	voice	.	261.294	B:maj
8B	it's	.	.	.	.	.	.
4c#	good	.	.	.	.	.	.
8r	.	.	.	.	.	.	.
8G#	to	.	.	.	.	.	.
=130	=130	=130	=130	=130	=130	=130	=130
8A	be	1BMm	.	voice	.	263.316	B:7
4.A	back	.	.	.	.	.	.
4G#	home	.	.	.	.	.	.
8D#	a-	.	.	.	.	.	.
[8E	-gain	.	.	.	D	.	.
=131	=131	=131	=131	=131	=131	=131	=131
2E]	_	1EM	.	voice	.	265.338	E:maj
2r	.	.	.	.	.	.	.
=132	=132	=132	=132	=132	=132	=132	=132
2r	.	1EM	.	voice	.	267.36	E:maj
8r	.	.	.	.	.	.	.
8E	I	.	.	.	.	.	.
8B	said	.	.	.	.	.	.
[8B	hey,	.	.	.	.	.	.
=133	=133	=133	=133	=133	=133	=133	=133
*>Label>>Outro	*>Label>>Outro	*>Label>>Outro	*>Label>>Outro	*>Label>>Outro	*>Label>>Outro	*>Label>>Outro	*>Label>>Outro
4B]	_	1BM	newline	voice	.	269.381	B:maj
8B	it's	.	.	.	.	.	.
[8c#	good	.	.	.	.	.	.
4c#]	_	.	.	.	.	.	.
8r	.	.	.	.	.	.	.
8E	to	.	.	.	.	.	.
=134	=134	=134	=134	=134	=134	=134	=134
8A	be	1BMm	.	voice	.	271.387	B:7
4A	back	.	.	.	.	.	.
[8G#	home	.	.	.	.	.	.
4.G#]	_	.	.	.	.	.	.
8D#	a-	.	.	.	.	.	.
=135	=135	=135	=135	=135	=135	=135	=135
8F#	-gain	1AM	.	voice	D	273.393	A:maj
[4.E	_	.	.	.	.	.	.
2E]	_	.	.	.	.	.	.
=136	=136	=136	=136	=136	=136	=136	=136
1r	.	2AM	.	voice	.	275.399	A:maj
.	.	2EM	.	voice	.	276.402	E:maj
r;	.	1r;	.	r	.	282.169	N.C.
r;	.	1r;	.	r	.	286.485	N.C.
*-	*-	*-	*-	*-	*-	*-	*-
!!!BillboardChartDate: 1974/12/28, 1974/12/14
!!!BillboardPeak: 5, 5
!!!BillboardWeeksOnChart: 16, 16
!!!COC: John Denver
!!!ENC: Nathaniel Condit-Schultz
!!!EST: Awating manual error checking and editing.
!!!OTL: Back Home Again
!!!RDF**chordsym: original McGill chord annotation + (implied pitch class set, with bass pitch in first position)
!!!RDF**harmony: **recip + pitch class of root + harmonic quality
!!!RDF**leadinstrument: original McGill primary instrumentation annotation
!!!RDF**phrase: newline = linebreak in original McGill transcription
!!!RDF**timestamp: McGill audio timestamp in seconds
!!!RDT: 2017/01/12/
!!!SampleActualRank: 65, 42
!!!SampleID#: 235, 446
!!!SampleTargetRank: 65, 44
